X: 44
T: Go to the Devil and shake yourself
R: Jig
M: 6/8
G: Blazing Cornet
L: 1/8
K: D
|:A|"D"Add "Em"dcB|"D"A>BA AFA|"G"Add d2e|"Em"fec "A"B2A|"D"Add "Em"dcB|
"D"ABA AFA|"Em"dfd "A7"ege|"D"fdd d2:||:"D"afd dcd|"G"BGG G2g/a/|
"Em"bge efe|"A"cAA A2A|"D"Add "Em"dcB|"D"ABA AFA|"Em"dfd "A7"ege|"D"fdd d2:|]
%%newpage
%%textfont * 14
%%begintext justify
%%32 Bar Jigs
%%endtext
